icons/refresh-cw-17.svg

<svg width="16" height="17" viewBox="0 0 16 17" fill="none" xmlns="http://www.w3.org/2000/svg">
<path d="M2.26164 9.54938C2.19134 9.57974 2.12578 9.62413 2.06929 9.68239C2.06033 9.69162 2.05167 9.70113 2.04332 9.71091C2.00024 9.76136 1.96692 9.81713 1.94328 9.87579C1.91924 9.93547 1.90522 9.99815 1.90115 10.0613C1.90032 10.0743 1.8999 10.0872 1.8999 10.1002C1.8999 10.1003 1.8999 10.1001 1.8999 10.1002L1.8999 13.1002C1.8999 13.4316 2.16853 13.7002 2.4999 13.7002C2.83127 13.7002 3.0999 13.4316 3.0999 13.1002L3.0999 11.4873L4.40239 12.7112C5.01021 13.317 5.76111 13.7597 6.58558 13.9982C7.41316 14.2376 8.2879 14.2634 9.12816 14.0733C9.96842 13.8832 10.7468 13.4833 11.3908 12.911C12.0347 12.3386 12.5231 11.6125 12.8105 10.8004C12.9211 10.488 12.7574 10.1451 12.445 10.0346C12.1327 9.92403 11.7898 10.0877 11.6793 10.4C11.4595 11.0211 11.086 11.5764 10.5936 12.014C10.1011 12.4517 9.50589 12.7575 8.86334 12.9029C8.22078 13.0483 7.55187 13.0285 6.91902 12.8454C6.28616 12.6624 5.70999 12.322 5.24427 11.856L5.23077 11.843L4.01463 10.7002H5.4999C5.83127 10.7002 6.0999 10.4316 6.0999 10.1002C6.0999 9.76884 5.83127 9.50021 5.4999 9.50021H2.4999C2.41524 9.50021 2.33468 9.51774 2.26164 9.54938Z" fill="#272431"/>
<path d="M13.7384 8.15098C13.8087 8.12062 13.8742 8.07624 13.9307 8.01797C13.9397 8.00875 13.9483 7.99923 13.9567 7.98945C13.9998 7.939 14.0331 7.88323 14.0567 7.82457C14.0847 7.75525 14.1001 7.6795 14.1001 7.60015L14.1001 4.60016C14.1001 4.26879 13.8315 4.00016 13.5001 4.00016C13.1687 4.00016 12.9001 4.26879 12.9001 4.60016L12.9001 6.21304L11.5976 4.98915C10.9898 4.38333 10.2389 3.94065 9.41442 3.70217C8.58684 3.4628 7.7121 3.43696 6.87184 3.62708C6.03158 3.8172 5.25317 4.21708 4.60925 4.7894C3.96532 5.36173 3.47688 6.08784 3.18948 6.9C3.07894 7.21239 3.24257 7.55524 3.55495 7.66578C3.86734 7.77633 4.2102 7.6127 4.32074 7.30031C4.54051 6.67925 4.91403 6.12399 5.40644 5.68633C5.89885 5.24867 6.49411 4.94288 7.13666 4.79749C7.77922 4.65211 8.44813 4.67186 9.08098 4.85492C9.71384 5.03797 10.29 5.37836 10.7557 5.84431L10.7692 5.85741L11.9854 7.00016L10.5001 7.00016C10.1687 7.00016 9.9001 7.26878 9.9001 7.60015C9.9001 7.93152 10.1687 8.20015 10.5001 8.20015L13.5001 8.20015C13.5848 8.20015 13.6653 8.18262 13.7384 8.15098Z" fill="#272431"/>
</svg>

<svg xmlns="http://www.w3.org/2000/svg" width="16" height="17" viewBox="0 0 16 17"><path d="M2.262 9.55a.597.597 0 00-.362.55v3a.6.6 0 101.2 0v-1.613l1.302 1.224a5.1 5.1 0 008.409-1.91.6.6 0 10-1.132-.401 3.9 3.9 0 01-6.435 1.456l-.013-.013L4.015 10.7H5.5a.6.6 0 100-1.2h-3a.598.598 0 00-.238.05zm11.476-1.399a.597.597 0 00.362-.55v-3a.6.6 0 10-1.2 0v1.612l-1.302-1.224A5.1 5.1 0 003.189 6.9a.6.6 0 001.132.4 3.9 3.9 0 016.435-1.456l.013.013L11.985 7H10.5a.6.6 0 100 1.2h3a.598.598 0 00.238-.049z"/></svg>
